X: 32910
T: Pottinger's
R: reel
M: 4/4
K: Gmajor
G2Gd BGGf|gagd BGGB|A^GAB cBce|agfe fddB|
G2Gd BGGf|gagd BGGB|cdec BcdB|dcBA BGGf:|
g2dg Bgdg|gbab gddB|eaag a2ab|c'bag fdef|
g2dg Bgdg|gbab gddB|cdec BcdB|dcBA BGGD:|

